old/src/logo.svg

<svg width="431" height="431" fill="none" xmlns="http://www.w3.org/2000/svg"><path fill="#fff" d="M0 0h431v431H0z"/><path d="m216.432 250.259 78.844 20.295H137.589l78.843-20.295Z" fill="url(#a)"/><path d="m84.936 269.204-6.297 25.683 47.898-24.388-41.6-1.295Z" fill="url(#b)"/><path d="m346.103 269.032 6.297 25.683-47.628-24.102 41.331-1.581Z" fill="url(#c)"/><g opacity=".7" filter="url(#d)"><mask id="e" mask-type="alpha" maskUnits="userSpaceOnUse" x="77" y="63" width="277" height="233"><path d="m301.325 265.263 49.043-127.305-129.042-19.814 79.999 147.119Z" fill="#3A3A3A"/><path d="m301.325 265.263 49.043-127.305-129.042-19.814 79.999 147.119ZM131.708 263.795l-51.11-125.837 129.043-19.814-77.933 145.651Z" fill="#3A3A3A"/><path d="m131.708 263.795-51.11-125.837 129.043-19.814-77.933 145.651ZM304.177 269.299 352.4 147.61l1.576 147.144-7.119-26.777-42.68 1.322Z" fill="#3A3A3A"/><path d="M304.177 269.299 352.4 147.61l1.576 147.144-7.119-26.777-42.68 1.322ZM127.661 269.153 78.567 147.235l-1.508 147.838 6.828-26.95 43.774 1.03Z" fill="#3A3A3A"/><path d="M127.661 269.153 78.567 147.235l-1.508 147.838 6.828-26.95 43.774 1.03ZM218.278 64.424l132.598 69.094-132.598-21.846V64.424Z" fill="#3A3A3A"/><path d="m218.278 64.424 132.598 69.094-132.598-21.846V64.424ZM213.197 63.916 80.599 133.01l132.598-21.846V63.916Z" fill="#3A3A3A"/><path d="M213.197 63.916 80.599 133.01l132.598-21.846V63.916ZM215.229 120.176l81.711 149.835-80.426-21.583-80.397 21.299 79.112-149.551Z" fill="#3A3A3A"/></mask><g mask="url(#e)"><path d="M78.567 289.486h274.341V63.916H78.567v225.57Z" fill="url(#f)"/></g></g><path fill-rule="evenodd" clip-rule="evenodd" d="M353.125 296.283a1.525 1.525 0 0 0-.032-2.698l-47.756-24.386a1.523 1.523 0 0 0-1.842.356l-82.81 95.003a1.524 1.524 0 0 0 1.874 2.342l130.566-70.617Zm-132.45 64.627 75.986-89.367a1.524 1.524 0 0 0-1.089-2.509l-.073-.002h-158a1.523 1.523 0 0 0-1.182 2.485l2.864 3.525m75.623 83.024 70.334-82.719H147.567l67.237 82.719Zm-75.375-82.719 69.864 85.951.003.003 4.242 5.22a1.534 1.534 0 0 0 1.253.561 1.52 1.52 0 0 0 1.091-.535l4.793-5.637m-14.308 5.985a1.524 1.524 0 0 0 1.898-2.319l-80.27-95.004a1.524 1.524 0 0 0-1.852-.376l-46.278 23.382-1.986 1.004a1.523 1.523 0 0 0-.046 2.696l1.95 1.071 126.584 69.546Zm-19.592-17.969-61.162-72.387-36.774 18.58 97.936 53.807Zm-49.276-78.37-.241.196Zm105.34 78.196 62.958-72.228 36.307 18.54-99.265 53.688Z" fill="#14222D"/><path fill-rule="evenodd" clip-rule="evenodd" d="m87.358 272.439-4.048 16.508 30.787-15.675-26.74-.833Zm-2.409-4.813a1.578 1.578 0 0 0-1.582 1.202l-6.297 25.683a1.578 1.578 0 0 0 2.25 1.783l47.897-24.388a1.579 1.579 0 0 0-.667-2.985l-41.601-1.295Zm266.702 28.498a1.579 1.579 0 0 0 2.246-1.785l-6.297-25.683a1.58 1.58 0 0 0-1.594-1.202l-41.331 1.581a1.58 1.58 0 0 0-.652 2.986l47.628 24.103Zm-3.989-7.327-4.049-16.512-26.571 1.017 30.62 15.495Zm-131.266-35.278-53.912 13.878h107.824l-53.912-13.878Zm.393-4.789a1.589 1.589 0 0 0-.787 0l-78.843 20.296a1.579 1.579 0 0 0 .393 3.107h157.687a1.578 1.578 0 0 0 .394-3.107l-78.844-20.296Z" fill="#14222D"/><defs><linearGradient id="a" x1="216.432" y1="272.89" x2="216.432" y2="250.259" gradientUnits="userSpaceOnUse"><stop stop-color="#72B3FF"/><stop offset="1" stop-color="#F3A8FF"/></linearGradient><linearGradient id="b" x1="109.453" y1="270.654" x2="82.016" y2="289.961" gradientUnits="userSpaceOnUse"><stop stop-color="#72B3FF"/><stop offset="1" stop-color="#F3A8FF"/></linearGradient><linearGradient id="c" x1="326.3" y1="270.248" x2="349.062" y2="281.873" gradientUnits="userSpaceOnUse"><stop stop-color="#72B3FF"/><stop offset="1" stop-color="#F3A8FF"/></linearGradient><linearGradient id="f" x1="215.969" y1="63.971" x2="215.969" y2="261.31" gradientUnits="userSpaceOnUse"><stop stop-color="#A5FFEF"/><stop offset=".221" stop-color="#82FFBC"/><stop offset=".432" stop-color="#E7FFA2"/><stop offset=".618" stop-color="#FFBEAF"/><stop offset=".823" stop-color="#EAAEFF"/><stop offset="1" stop-color="#CCACFF"/></linearGradient><filter id="d" x="77.567" y="62.916" width="276.341" height="227.569" filterUnits="userSpaceOnUse" color-interpolation-filters="sRGB"><feFlood flood-opacity="0" result="BackgroundImageFix"/><feBlend in="SourceGraphic" in2="BackgroundImageFix" result="shape"/><feGaussianBlur stdDeviation=".5" result="effect1_foregroundBlur"/></filter></defs></svg>

<svg width="431" height="431" viewBox="0 0 431 431" fill="none" xmlns="http://www.w3.org/2000/svg">
<rect width="431" height="431" fill="white"/>
<path d="M216.432 250.259L295.276 270.554H137.589L216.432 250.259Z" fill="url(#paint0_linear)"/>
<path d="M84.9361 269.204L78.6393 294.887L126.537 270.499L84.9361 269.204Z" fill="url(#paint1_linear)"/>
<path d="M346.103 269.032L352.4 294.715L304.772 270.613L346.103 269.032Z" fill="url(#paint2_linear)"/>
<g opacity="0.7" filter="url(#filter0_f)">
<mask id="mask0" mask-type="alpha" maskUnits="userSpaceOnUse" x="77" y="63" width="277" height="233">
<path d="M301.325 265.263L350.368 137.958L221.326 118.144L301.325 265.263Z" fill="#3A3A3A"/>
<path d="M301.325 265.263L350.368 137.958L221.326 118.144L301.325 265.263Z" fill="#3A3A3A"/>
<path d="M131.708 263.795L80.5988 137.958L209.641 118.144L131.708 263.795Z" fill="#3A3A3A"/>
<path d="M131.708 263.795L80.5988 137.958L209.641 118.144L131.708 263.795Z" fill="#3A3A3A"/>
<path d="M304.177 269.299L352.4 147.61L353.976 294.754L346.857 267.977L304.177 269.299Z" fill="#3A3A3A"/>
<path d="M304.177 269.299L352.4 147.61L353.976 294.754L346.857 267.977L304.177 269.299Z" fill="#3A3A3A"/>
<path d="M127.661 269.153L78.5667 147.235L77.0591 295.073L83.887 268.123L127.661 269.153Z" fill="#3A3A3A"/>
<path d="M127.661 269.153L78.5667 147.235L77.0591 295.073L83.887 268.123L127.661 269.153Z" fill="#3A3A3A"/>
<path d="M218.278 64.4244L350.876 133.518L218.278 111.672V64.4244Z" fill="#3A3A3A"/>
<path d="M218.278 64.4244L350.876 133.518L218.278 111.672V64.4244Z" fill="#3A3A3A"/>
<path d="M213.197 63.9164L80.5989 133.01L213.197 111.164V63.9164Z" fill="#3A3A3A"/>
<path d="M213.197 63.9164L80.5989 133.01L213.197 111.164V63.9164Z" fill="#3A3A3A"/>
<path d="M215.229 120.176L296.94 270.011L216.514 248.428L136.117 269.727L215.229 120.176Z" fill="#3A3A3A"/>
</mask>
<g mask="url(#mask0)">
<path d="M78.5667 289.486H352.908V63.9164H78.5667V289.486Z" fill="url(#paint3_linear)"/>
</g>
</g>
<path fill-rule="evenodd" clip-rule="evenodd" d="M353.125 296.283C353.623 296.013 353.931 295.49 353.924 294.924C353.917 294.358 353.597 293.842 353.093 293.585L305.337 269.199C304.714 268.881 303.955 269.027 303.495 269.555L220.685 364.558C220.201 365.114 220.183 365.936 220.644 366.512C221.104 367.087 221.91 367.251 222.559 366.9L353.125 296.283ZM220.675 360.91L296.661 271.543C297.045 271.091 297.132 270.456 296.883 269.916C296.644 269.399 296.137 269.061 295.572 269.034C295.548 269.033 295.524 269.032 295.499 269.032H137.499C137.025 269.032 136.584 269.252 136.299 269.617C136.231 269.704 136.172 269.799 136.123 269.901C135.87 270.432 135.946 271.061 136.317 271.517L139.181 275.042M214.804 358.066L285.138 275.347H147.567L214.804 358.066ZM139.429 275.347L209.293 361.298L209.296 361.301L213.538 366.521C213.696 366.714 213.896 366.864 214.12 366.96C214.303 367.038 214.501 367.081 214.704 367.083C214.733 367.084 214.762 367.083 214.791 367.082C215.212 367.063 215.608 366.87 215.882 366.547L220.675 360.91M206.367 366.895C207.01 367.249 207.815 367.093 208.28 366.525C208.745 365.956 208.739 365.137 208.265 364.576L127.995 269.572C127.539 269.033 126.773 268.877 126.143 269.196L79.8653 292.578L77.8793 293.582C77.3746 293.837 77.0525 294.35 77.0428 294.916C77.033 295.481 77.3371 296.005 77.8328 296.278L79.7829 297.349L206.367 366.895ZM186.775 348.926L125.613 276.539L88.8387 295.119L186.775 348.926ZM137.499 270.556L137.258 270.752ZM242.839 348.752L305.797 276.524L342.104 295.064L242.839 348.752Z" fill="#14222D"/>
<path fill-rule="evenodd" clip-rule="evenodd" d="M87.3575 272.439L83.3102 288.947L114.097 273.272L87.3575 272.439ZM84.949 267.626C84.2039 267.602 83.544 268.104 83.3665 268.828L77.0697 294.511C76.9227 295.11 77.1387 295.741 77.6225 296.124C78.1063 296.507 78.7692 296.574 79.3193 296.294L127.217 271.906C127.86 271.579 128.199 270.858 128.042 270.155C127.884 269.451 127.271 268.944 126.55 268.921L84.949 267.626ZM351.651 296.124C352.201 296.402 352.863 296.335 353.346 295.951C353.828 295.568 354.044 294.938 353.897 294.339L347.6 268.656C347.421 267.928 346.755 267.426 346.006 267.454L304.675 269.035C303.956 269.063 303.347 269.573 303.193 270.276C303.039 270.979 303.381 271.696 304.023 272.021L351.651 296.124ZM347.662 288.797L343.613 272.285L317.042 273.302L347.662 288.797ZM216.396 253.519L162.484 267.397H270.308L216.396 253.519ZM216.789 248.73C216.531 248.664 216.26 248.664 216.002 248.73L137.159 269.026C136.389 269.224 135.886 269.964 135.986 270.753C136.086 271.542 136.757 272.133 137.552 272.133H295.239C296.034 272.133 296.706 271.542 296.805 270.753C296.905 269.964 296.403 269.224 295.633 269.026L216.789 248.73Z" fill="#14222D"/>
<defs>
<filter id="filter0_f" x="77.5667" y="62.9164" width="276.341" height="227.569" filterUnits="userSpaceOnUse" color-interpolation-filters="sRGB">
<feFlood flood-opacity="0" result="BackgroundImageFix"/>
<feBlend mode="normal" in="SourceGraphic" in2="BackgroundImageFix" result="shape"/>
<feGaussianBlur stdDeviation="0.5" result="effect1_foregroundBlur"/>
</filter>
<linearGradient id="paint0_linear" x1="216.432" y1="272.89" x2="216.432" y2="250.259" gradientUnits="userSpaceOnUse">
<stop stop-color="#72B3FF"/>
<stop offset="1" stop-color="#F3A8FF"/>
</linearGradient>
<linearGradient id="paint1_linear" x1="109.453" y1="270.654" x2="82.0164" y2="289.961" gradientUnits="userSpaceOnUse">
<stop stop-color="#72B3FF"/>
<stop offset="1" stop-color="#F3A8FF"/>
</linearGradient>
<linearGradient id="paint2_linear" x1="326.3" y1="270.248" x2="349.062" y2="281.873" gradientUnits="userSpaceOnUse">
<stop stop-color="#72B3FF"/>
<stop offset="1" stop-color="#F3A8FF"/>
</linearGradient>
<linearGradient id="paint3_linear" x1="215.969" y1="63.9711" x2="215.969" y2="261.31" gradientUnits="userSpaceOnUse">
<stop stop-color="#A5FFEF"/>
<stop offset="0.221404" stop-color="#82FFBC"/>
<stop offset="0.432345" stop-color="#E7FFA2"/>
<stop offset="0.61847" stop-color="#FFBEAF"/>
<stop offset="0.823207" stop-color="#EAAEFF"/>
<stop offset="1" stop-color="#CCACFF"/>
</linearGradient>
</defs>
</svg>
